Front-end/assets/images/icons/arrow.svg

<svg width="132" height="132" viewBox="0 0 132 132" fill="none" xmlns="http://www.w3.org/2000/svg">
<path d="M11.0542 71.4679L107.616 71.5119L89.5798 89.5803C88.5154 90.6158 87.9145 92.0377 87.9145 93.5227C87.9561 98.4227 93.8981 100.829 97.3351 97.3362L124.857 69.8469C127.011 67.6978 127.011 64.2079 124.857 62.0588L97.3351 34.5696C92.1363 29.1858 84.1673 37.1995 89.5798 42.3684L107.723 60.5119L11.0542 60.4678C7.95372 60.4128 5.42076 62.9315 5.45194 66.0323C5.47273 69.0869 8.00008 71.5274 11.0542 71.4679Z" fill="#FF5C00"/>
</svg>

<svg width="132" height="132" fill="none" xmlns="http://www.w3.org/2000/svg"><path d="M11.054 71.468l96.562.044L89.58 89.58a5.5 5.5 0 00-1.665 3.943c.041 4.9 5.983 7.306 9.42 3.813l27.522-27.49a5.5 5.5 0 000-7.787l-27.522-27.49c-5.199-5.383-13.168 2.63-7.755 7.8l18.143 18.143-96.669-.044a5.508 5.508 0 00-5.602 5.564c.02 3.055 2.548 5.495 5.602 5.436z" fill="#FF5C00"/></svg>
